!! 00000] TT[WS
!!!OTL: Er guniang liaobing
!!!ARE: Asia, China,ÿShanxi Qinyun
!! Ethnic Group: Han
!! WI, 105
!!!SCT: J0123
!!!YEM: Copyright 1995, estate of Helmut Schaffrath.
**kern
*ICvox
*Ivox
*M2/4
*k[b-]
*F:
{4dd
4dd
=1
4ff
8ff
8dd
=2
8cc
8a
4cc}
=3
{8a
8cc
8a
8cc
=4
8dd
8dd
8dd
8ff
=5
8ff
8dd
8cc
8a
=6
8a
4g
8f
=7
2g}
=8
{4dd
4dd
=9
4ff
8ff
8dd
=10
8cc
8a
4cc}
=11
{8a
8cc
8a
8cc
=12
8dd
8dd
8dd
8ff
=13
8ff
8dd
8cc
8a
=14
8a
4g
8f
=15
2g}
=16
{4g
8cc
8a
=17
4.g
8cc
=18
8a
8g
8f
8a
=19
2g}
=20
{4g
8cc
8a
=21
4.g
8cc
=22
8a
8g
8f
8a
=23
2g}
=24
{4g
4cc
=25
8a
8cc
8a
8g
=26
4.cc
8d
=27
4f
4f}
=28
{4g
4cc
=29
8g
8cc
8g
8f
=30
4d
4g
=31
4g
8e
8d
=32
4.c
8d
=33
2c}
==
!!!AGN: Xiaodiao. Qingge
!!!ONB: ESAC (Essen Associative Code) Database: CHINA
!!!AMT: simple duple
!!!AIN: vox
!!!EED: Helmut Schaffrath
!!!EEV: 1.0
*-
